!!!OTL: Allerlei W&uuml;nsche (68), S. 201
!!!id: T0217
**kern
*clefG2
*k[]
*G:
{4d
=1
8g
8g
8g
8g
8g
8d
8g
8a
=2
4b
4a
4g}
=3
{4dd
=4
4dd
8dd
8cc
4b}
=5
{8a
8b
=6
4cc
8cc
8b
4a}
=7
{8g
8a
=8
4b
8b
8a
4g}
==
*-
!!!minrhy: 8
!!!meters: 4/4 ]  ZZ[4
!!!cut: Allerlei W&uuml;nsche (68), S. 201
!!!reg: Luxemburg
!!!trd: Singendes Volk, Esch-Alzette 1937 posth.
!!!rhy1: X_  XXXXXXXX  X_X_X_
!!!rhy2: X_  X_XXX_
!!!key: T0217  08  G 4/4 ]  ZZ[4
!!!mod: PENTATONIK DUR ?]  AMBITUS[8
!!!kad: 1321
!!!akz: 1131_53_42_31_
!!!fot: 'a__b__c__cs_
!!!for: 'a__b__bv_bv_
!!!fok: '^a_\__^__^__
!! PHRAS[AUFTAKTIG]
!!!fkt: Liebeslieder
!!!bem: StraPen, fff Witry-Schmit, 6.12.1932
!! THILL, Mathias:
!! PR[73] 2K[3] 2G[3] 3K[3] 3G[0] 4A[0] 4Ü[0] 5A[0] 6K[0] 6G[0]
!! 7K[0] 7G[0] 8A[0] MEHR[0] SI[9] ABS[33] SR[6] SP[3]
!! ST[0] 2k[6] 2g[12] 3k[0] 3g[0] 4d[0] 4ü[0] 5d[0] 6k[0] 6g[0]
!! 7k[0] 7g[0] 8d[0] mehr[0] si[18] dm[-9] sr[18] sp[0]
!! 1F[9] 2F[91] 3F[0] 4F[0] LF[0] 2P[0] 3P[0] 4P[0] TRI[0] DF[2] AB[34]
!! TF[0] U3K[0] U3[0] U4[0] U4Ü[0] U5[0] U6K[0] U6[0] U7K[0] U7[0]
!! N1[6] N2K[0] N2[44] N3K[0] N3[41] N4[6] N4Ü[0] N5[3] N6K[0] N6[0]
!!!n7k: 0] N7[0] O1[0] O2K[0] O2[0] O3K[0] O3[0] HÖ[0
!!!RNB: symbol: &uuml;  = u umlaut (UTF-8: Ã¼)
